svg/java.svg

<svg viewBox="0 0 20 20" xmlns="http://www.w3.org/2000/svg">
<rect width="100%" height="100%" fill="#F80102"/>
<path d="M9.99418 11.0304C10.2835 11.1227 10.5889 11.1539 10.891 11.122C11.3648 11.1165 11.8188 10.9315 12.1615 10.6043C12.8957 9.94015 13.003 8.97696 12.277 8.20559C11.9016 7.82336 11.4005 7.58985 10.8664 7.54815C10.3323 7.50645 9.8011 7.65938 9.37091 7.97872C8.46341 8.64697 8.38504 9.85353 9.21004 10.5857C9.4378 10.7867 9.70482 10.9381 9.99418 11.0304Z" fill="white"/>
<path fill-rule="evenodd" clip-rule="evenodd" d="M14.8985 10.1093C14.8449 9.9814 14.7934 9.84734 14.7356 9.69678C14.8186 9.6688 14.8993 9.63432 14.9769 9.59365C15.0568 9.5498 15.127 9.49016 15.1832 9.41834C15.2299 9.35381 15.2893 9.29949 15.3577 9.25871C15.4262 9.21793 15.5022 9.19154 15.5812 9.18115C15.7043 9.15568 15.824 9.11623 15.938 9.06359C16.0775 9.01103 16.1933 8.9099 16.2641 8.7788C16.335 8.64769 16.3562 8.49542 16.3237 8.34997C16.268 7.86322 16.2247 7.38472 16.1855 6.90622C16.1847 6.87449 16.1907 6.84296 16.2032 6.81378C16.2156 6.78459 16.2342 6.75843 16.2577 6.73709C16.4856 6.5491 16.6599 6.30438 16.763 6.02759C16.9731 5.59499 17.2922 5.22462 17.6891 4.95303C17.7838 4.88922 17.8663 4.80888 17.9325 4.71584C17.9835 4.65243 18.0114 4.57347 18.0114 4.49206C18.0114 4.41065 17.9835 4.33169 17.9325 4.26828C17.817 4.11978 17.6705 4.19609 17.5592 4.2559C17.3936 4.35431 17.2345 4.46315 17.0827 4.58178C16.9074 4.70347 16.8002 4.67665 16.763 4.4704C16.7332 4.26973 16.7208 4.06685 16.7259 3.86403C16.7403 3.67051 16.7444 3.47636 16.7383 3.2824C16.7372 3.21577 16.718 3.15068 16.6828 3.09412C16.6475 3.03756 16.5975 2.99166 16.5382 2.96135C16.4788 2.93104 16.4124 2.91745 16.3459 2.92205C16.2794 2.92666 16.2154 2.94927 16.1608 2.98747C16.0855 3.0387 16.028 3.11206 15.9962 3.19742C15.9644 3.28278 15.9599 3.3759 15.9834 3.4639C16.0085 3.69124 16.0182 3.92001 16.0123 4.14865C16.0082 4.30334 15.9009 4.34253 15.7834 4.24559C15.7286 4.20349 15.6835 4.15001 15.6514 4.08884C15.5565 3.89497 15.4657 3.70728 15.3812 3.50103C15.278 3.25765 15.1502 3.16484 14.9419 3.22672C14.7335 3.28859 14.649 3.42678 14.715 3.68872C14.777 3.90005 14.8571 4.10568 14.9542 4.30334C14.9895 4.38202 15.0286 4.45843 15.0678 4.53488C15.1272 4.65081 15.1867 4.76686 15.2327 4.89115C15.2453 4.93258 15.248 4.97641 15.2405 5.01907C15.233 5.06174 15.2154 5.10201 15.1894 5.13659C15.1502 5.17578 15.0244 5.15722 14.9439 5.13659C14.8723 5.10185 14.8034 5.06186 14.7377 5.01697C14.6319 4.95865 14.513 4.92806 14.3922 4.92806C14.2714 4.92806 14.1525 4.95865 14.0467 5.01697C13.9478 5.0866 13.8722 5.18452 13.8298 5.29789C13.7875 5.41125 13.7804 5.53476 13.8095 5.65222C13.8549 5.80278 14.0199 5.85847 14.3087 5.85847C14.5698 5.87163 14.8296 5.90334 15.0862 5.95334C15.1409 5.95646 15.1944 5.97096 15.2431 5.99589C15.2919 6.02083 15.3349 6.05567 15.3695 6.09817C15.404 6.14068 15.4293 6.18992 15.4438 6.24276C15.4582 6.29559 15.4615 6.35086 15.4534 6.40503C15.4406 6.48045 15.4566 6.55791 15.4983 6.62208C15.5399 6.68624 15.6041 6.73244 15.6782 6.75153C15.8741 6.79278 15.8968 6.92478 15.9133 7.0774C15.9245 7.18935 15.9362 7.30129 15.9478 7.41316C15.9705 7.63106 15.9932 7.84865 16.0123 8.06534C16.0247 8.20353 16.0247 8.34172 16.0247 8.47784C16.0275 8.54248 16.0049 8.60566 15.9617 8.65385C15.9186 8.70204 15.8582 8.7314 15.7937 8.73565C15.7478 8.7435 15.7 8.76354 15.6518 8.78372C15.5354 8.83249 15.417 8.88209 15.3193 8.76247C15.2338 8.65298 15.1201 8.56896 14.9903 8.51951C14.8605 8.47007 14.7196 8.45708 14.583 8.48197C14.3726 8.50465 14.2922 8.41184 14.2117 8.23034C13.3867 6.37684 12.5617 4.52059 11.7367 2.66159C11.7042 2.5763 11.6628 2.49472 11.613 2.41822C11.5057 2.26972 11.4109 2.26972 11.2789 2.40172C11.2385 2.44212 11.2012 2.48556 11.1675 2.53165C11.0623 2.66727 10.9568 2.80263 10.8514 2.93798C10.5351 3.34403 10.2187 3.75008 9.90936 4.16309C8.96539 5.39606 8.11137 6.69535 7.35392 8.0509C7.18273 8.3644 7.02598 8.56653 6.63617 8.51084C6.53378 8.48512 6.42571 8.49476 6.32949 8.53819C6.23326 8.58162 6.15455 8.65629 6.10611 8.75009C6.00917 9.02234 5.80911 9.05947 5.58429 9.09865C5.44835 9.11798 5.31395 9.14693 5.18211 9.18528C4.68648 9.34762 4.46882 9.40068 4.34071 9.53755C4.22305 9.66326 4.18092 9.85966 4.06836 10.2763C4.05711 10.3446 4.05022 10.4135 4.04773 10.4826C4.03329 10.627 4.00648 10.7487 3.81673 10.761C3.77886 10.7699 3.74362 10.7877 3.71387 10.8127C3.68413 10.8378 3.66072 10.8696 3.64554 10.9054C3.60371 11.0807 3.47723 11.1502 3.34042 11.2253C3.33558 11.228 3.33072 11.2307 3.32586 11.2333C3.24751 11.2794 3.17773 11.3388 3.11961 11.4087C2.88036 11.6995 2.75661 11.7345 2.41629 11.584C2.34017 11.5558 2.2649 11.5229 2.18913 11.4897C2.0986 11.4502 2.00735 11.4103 1.91304 11.3777C1.63667 11.287 1.51498 11.3757 1.50054 11.65C1.49065 11.7006 1.49224 11.7527 1.50519 11.8026C1.51815 11.8525 1.54213 11.8989 1.57539 11.9383C1.60864 11.9776 1.65031 12.0091 1.69733 12.0302C1.74435 12.0514 1.79551 12.0617 1.84704 12.0604C1.91418 12.0688 1.98233 12.0764 2.0506 12.084C2.20045 12.1007 2.35091 12.1174 2.49261 12.1429C2.59152 12.1788 2.6857 12.2266 2.77311 12.2852C2.66721 12.33 2.58142 12.3673 2.50557 12.4002C2.42777 12.434 2.36042 12.4633 2.29254 12.4915C2.05709 12.5878 1.86043 12.7598 1.73361 12.9803C1.71077 13.0066 1.69359 13.0373 1.68314 13.0705C1.67269 13.1037 1.6692 13.1388 1.67288 13.1734C1.67655 13.208 1.68732 13.2415 1.70451 13.2718C1.7217 13.3021 1.74494 13.3285 1.77279 13.3495C1.98729 13.5 2.39154 13.6052 2.61842 13.3288C2.71278 13.214 2.82743 13.1176 2.95667 13.0442C3.00166 13.0116 3.05499 12.9925 3.11044 12.9891C3.16588 12.9857 3.22115 12.9981 3.2698 13.0249C3.31845 13.0517 3.35848 13.0918 3.3852 13.1405C3.41192 13.1892 3.42425 13.2445 3.42073 13.3C3.42169 13.4141 3.41132 13.5281 3.38979 13.6403C3.34748 13.8407 3.32127 14.0441 3.31142 14.2487C3.32034 14.302 3.34133 14.3526 3.37279 14.3966C3.40425 14.4405 3.44533 14.4767 3.49292 14.5024C3.5406 14.5127 3.5901 14.5109 3.63693 14.4972C3.68375 14.4836 3.72641 14.4584 3.76104 14.424C3.86027 14.2909 3.93052 14.1384 3.96729 13.9765C3.99336 13.8483 4.00226 13.7162 4.01118 13.584C4.0192 13.465 4.02722 13.3461 4.04773 13.2298C4.06962 13.081 4.12691 12.9395 4.21479 12.8173C4.35504 12.6338 4.47261 12.6503 4.64379 12.805C4.78138 12.9368 4.93203 13.0543 5.09342 13.1556C5.22954 13.2381 5.21923 13.3288 5.18829 13.4443C4.99956 14.1392 4.878 14.8506 4.82529 15.5687C4.76321 16.0817 4.84609 16.6019 5.06454 17.0702C5.36567 17.658 5.81942 17.8767 6.40929 17.5033C6.58254 17.392 6.75373 17.2785 6.92286 17.163C7.0465 17.0779 7.1677 16.9892 7.2888 16.9006C7.53736 16.7188 7.78544 16.5373 8.05311 16.3875C9.42054 15.6182 10.8086 15.5852 12.1781 16.4102C12.4055 16.5473 12.6175 16.7107 12.8294 16.8741C12.9077 16.9344 12.986 16.9947 13.065 17.0537C13.3566 17.2931 13.6892 17.4776 14.0467 17.5982C14.3247 17.6982 14.6303 17.6881 14.901 17.57C15.1718 17.4519 15.3871 17.2347 15.5029 16.963C15.6629 16.6089 15.7653 16.2315 15.806 15.8451C15.9064 14.8994 15.8689 13.9441 15.6947 13.0092C15.536 12.0164 15.269 11.0439 14.8985 10.1093ZM15.0615 12.2398C15.2778 13.0573 15.3928 13.8982 15.4039 14.7437C15.4028 14.773 15.4017 14.8023 15.4007 14.8316C15.3796 15.421 15.3586 16.0086 15.113 16.5587C15.0331 16.786 14.8693 16.9742 14.6552 17.0847C14.5204 17.1383 14.3744 17.1576 14.2304 17.1407C14.0863 17.1237 13.9488 17.0712 13.8302 16.9877C13.5639 16.8328 13.3114 16.6555 13.0753 16.4577C12.4483 15.902 11.6843 15.5239 10.8622 15.3625C9.81343 15.1887 8.73785 15.4218 7.85511 16.0142C7.64155 16.1505 7.43631 16.3001 7.23093 16.4497C7.11301 16.5357 6.99504 16.6216 6.87542 16.7052C6.71789 16.8192 6.55248 16.9219 6.38042 17.0125C6.06486 17.1672 5.81736 17.1115 5.65236 16.8062C5.53112 16.5893 5.45204 16.3513 5.41929 16.105C5.36969 15.5463 5.40305 14.9833 5.51829 14.4343C5.8821 12.7023 6.43113 11.0144 7.15592 9.39978C7.17487 9.3552 7.19863 9.31242 7.22266 9.26918C7.24309 9.23239 7.26372 9.19527 7.28173 9.1564C7.30386 9.091 7.34869 9.03568 7.40809 9.00049C7.4675 8.9653 7.53755 8.95257 7.60554 8.96459H7.64267C8.01186 8.99759 8.22017 8.86559 8.37692 8.49022C8.68217 7.73122 9.33392 7.31047 10.1259 7.15372C11.2438 6.93097 12.2854 7.34759 12.8443 8.24065C12.9553 8.41519 13.0388 8.60581 13.0918 8.80578C13.0976 8.85092 13.1124 8.89445 13.1352 8.93382C13.158 8.97319 13.1885 9.00762 13.2248 9.03508C13.2611 9.06254 13.3025 9.08249 13.3466 9.09376C13.3907 9.10503 13.4366 9.10739 13.4816 9.10072H13.6198C13.7384 9.09305 13.856 9.12694 13.9524 9.19657C14.0487 9.26621 14.1178 9.36723 14.1478 9.48228C14.2699 9.86474 14.4008 10.244 14.5316 10.623C14.7169 11.1597 14.9019 11.6959 15.0615 12.2398ZM4.74898 9.6679C5.11817 9.55447 5.48323 9.44515 5.89573 9.32347C5.93613 9.34595 5.97669 9.36819 6.01732 9.39046C6.17791 9.4785 6.33954 9.5671 6.49592 9.67409C6.52273 9.67409 6.49386 9.81021 6.46911 9.88034C6.21336 10.5898 5.95554 11.2952 5.69567 12.0027C5.68693 12.0509 5.66664 12.0962 5.63653 12.1349C5.60643 12.1735 5.5674 12.2043 5.5228 12.2246C5.4782 12.2449 5.42935 12.254 5.38043 12.2513C5.33151 12.2486 5.28399 12.234 5.24192 12.2089C5.07998 12.1244 4.92422 12.0286 4.77579 11.9222C4.69184 11.8834 4.6261 11.8137 4.59229 11.7277C4.55847 11.6416 4.55919 11.5458 4.59429 11.4602C4.62222 11.3893 4.62475 11.3109 4.60144 11.2383C4.57813 11.1658 4.53042 11.1035 4.46642 11.0622C4.41478 11.0269 4.37586 10.976 4.35543 10.917C4.335 10.8579 4.33414 10.7938 4.35298 10.7342C4.38347 10.5894 4.40379 10.443 4.42406 10.297C4.43669 10.2059 4.44931 10.115 4.46436 10.0247C4.47142 9.94383 4.50219 9.86683 4.55282 9.80336C4.60345 9.73988 4.67169 9.69277 4.74898 9.6679Z" fill="white"/>
</svg>

<svg xmlns="http://www.w3.org/2000/svg" viewBox="0 0 20 20">
  <rect width="100%" height="100%" fill="#F80102"/>
  <path fill="#fff" d="M10 11.03c.28.1.59.12.9.1.46-.01.92-.2 1.26-.53.74-.66.84-1.62.12-2.4a2.22 2.22 0 0 0-2.9-.22c-.92.67-1 1.87-.17 2.6.23.2.5.36.78.45Z"/>
  <path fill="#fff" fill-rule="evenodd" d="M14.9 10.1c-.06-.12-.1-.25-.16-.4l.24-.1c.08-.05.15-.11.2-.18a.59.59 0 0 1 .4-.24c.12-.02.24-.06.36-.12a.62.62 0 0 0 .38-.71 44.84 44.84 0 0 1-.12-1.54.22.22 0 0 1 .06-.07c.23-.2.4-.44.5-.71.21-.44.53-.8.93-1.08.1-.06.18-.14.24-.23a.36.36 0 0 0 0-.45c-.11-.15-.26-.07-.37-.01-.17.1-.33.2-.48.32-.17.12-.28.1-.32-.11-.03-.2-.04-.4-.03-.6v-.59a.37.37 0 0 0-.57-.3.44.44 0 0 0-.18.48c.03.23.04.46.03.69 0 .15-.1.2-.23.1a.48.48 0 0 1-.13-.16l-.27-.59c-.1-.24-.23-.34-.44-.27-.2.06-.3.2-.22.46a3.86 3.86 0 0 0 .35.84c.06.12.12.24.16.36a.28.28 0 0 1-.04.25c-.04.04-.17.02-.25 0a1.62 1.62 0 0 1-.2-.12.72.72 0 0 0-.7 0 .6.6 0 0 0-.23.63c.04.15.21.2.5.2a5.52 5.52 0 0 1 .93.15.4.4 0 0 1 .21.4.3.3 0 0 0 .23.35c.2.04.22.17.23.33l.04.33.06.66.01.4a.25.25 0 0 1-.23.27c-.04 0-.09.02-.14.04-.11.05-.23.1-.33-.02a.76.76 0 0 0-.74-.28c-.2.02-.29-.07-.37-.25a5541.71 5541.71 0 0 1-2.6-5.81c-.1-.15-.2-.15-.33-.02l-.11.13-.32.4-.94 1.23a32.37 32.37 0 0 0-2.56 3.9c-.17.3-.32.5-.71.45a.47.47 0 0 0-.53.24c-.1.27-.3.3-.53.35a2.9 2.9 0 0 0-.4.09c-.5.16-.71.21-.84.35-.12.12-.16.32-.27.74l-.02.2c-.02.15-.04.27-.23.28a.25.25 0 0 0-.17.15c-.05.17-.17.24-.31.32h-.01a.79.79 0 0 0-.21.18c-.24.29-.36.32-.7.17a4.24 4.24 0 0 1-.23-.09l-.28-.11c-.27-.1-.4 0-.4.27a.34.34 0 0 0 .34.41l.2.02.44.06c.1.04.2.09.28.15l-.26.11-.22.1c-.23.09-.43.26-.56.48a.25.25 0 0 0 .04.37c.22.15.62.26.85-.02.1-.12.2-.21.34-.29a.3.3 0 0 1 .46.26c0 .11 0 .23-.03.34-.04.2-.07.4-.08.6a.36.36 0 0 0 .18.26.3.3 0 0 0 .27-.08c.1-.13.17-.28.2-.44.03-.13.04-.26.05-.4 0-.12.02-.23.04-.35a.94.94 0 0 1 .16-.41c.15-.19.26-.17.43-.02.14.14.3.25.45.36.14.08.13.17.1.28-.19.7-.31 1.41-.36 2.13-.07.51.02 1.03.23 1.5.3.59.76.8 1.35.43.17-.1.34-.22.51-.34l.37-.26c.25-.18.5-.36.76-.51a3.86 3.86 0 0 1 4.13.02 7.01 7.01 0 0 1 .88.64c.3.24.63.43.99.55a1.16 1.16 0 0 0 1.45-.64c.16-.35.27-.73.3-1.11.1-.95.07-1.9-.1-2.84-.16-1-.43-1.97-.8-2.9Zm.16 2.14a10.32 10.32 0 0 1 .34 2.6c-.02.58-.04 1.17-.29 1.72a.94.94 0 0 1-.45.52.87.87 0 0 1-.83-.1 5.42 5.42 0 0 1-.75-.52 4.17 4.17 0 0 0-5.22-.44c-.22.13-.42.28-.63.43l-.35.26c-.16.1-.33.21-.5.3-.32.16-.56.1-.73-.2-.12-.22-.2-.46-.23-.7a5.69 5.69 0 0 1 .1-1.68 24.68 24.68 0 0 1 1.7-5.16l.06-.11a.29.29 0 0 1 .33-.2h.03c.37.04.58-.1.74-.47.3-.76.95-1.18 1.75-1.34 1.11-.22 2.16.2 2.71 1.1.12.17.2.36.25.56a.34.34 0 0 0 .4.3h.13a.51.51 0 0 1 .53.37l.38 1.14c.19.54.37 1.08.53 1.62ZM4.75 9.67l1.15-.35.12.07.48.28c.02 0 0 .14-.03.21a374.47 374.47 0 0 1-.83 2.25.3.3 0 0 1-.4.08 3.88 3.88 0 0 1-.46-.29.36.36 0 0 1-.19-.46.33.33 0 0 0-.12-.4.3.3 0 0 1-.12-.33l.07-.43.04-.28a.41.41 0 0 1 .29-.35Z" clip-rule="evenodd"/>
</svg>
